packages/kaspersky-hexa-ui-icons/src/iconsSVGs/16/HighlightMatches.svg

<svg width="16" height="16" viewBox="0 0 16 16" fill="none" xmlns="http://www.w3.org/2000/svg">
<path fill-rule="evenodd" clip-rule="evenodd" d="M12.6756 3.96675H3.34229C2.95569 3.96675 2.64229 4.28015 2.64229 4.66675V11.3334C2.64229 11.72 2.95569 12.0334 3.34228 12.0334H12.6756C13.0622 12.0334 13.3756 11.72 13.3756 11.3334V4.66675C13.3756 4.28015 13.0622 3.96675 12.6756 3.96675ZM3.34229 2.66675C2.23772 2.66675 1.34229 3.56218 1.34229 4.66675V11.3334C1.34229 12.438 2.23771 13.3334 3.34228 13.3334H12.6756C13.7802 13.3334 14.6756 12.438 14.6756 11.3334V4.66675C14.6756 3.56218 13.7802 2.66675 12.6756 2.66675H3.34229Z" fill="black"/>
</svg>

<svg xmlns="http://www.w3.org/2000/svg" width="16" height="16" fill="none" viewBox="0 0 16 16"><path fill="#000" fill-rule="evenodd" d="M12.6756 3.9668H3.3423a.7.7 0 0 0-.7.7v6.6666a.7.7 0 0 0 .7.7h9.3333a.7.7 0 0 0 .7-.7V4.6668a.7.7 0 0 0-.7-.7m-9.3333-1.3c-1.1046 0-2 .8954-2 2v6.6666c0 1.1046.8954 2 2 2h9.3333c1.1046 0 2-.8954 2-2V4.6668c0-1.1046-.8954-2-2-2z"/></svg>
